assets/img/braze_icons/rows-03.svg

<svg fill="none" height="24" viewBox="0 0 24 24" width="24" xmlns="http://www.w3.org/2000/svg"><g fill="#801ed7"><path d="m20.4 7c.5742 0 .8612 0 1.0781-.11276.1874-.09742.346-.26049.4383-.45047.1067-.21989.0992-.49215.0843-1.03669-.0055-.19882-.0151-.39729-.0313-.5951-.0323-.39535-.1036-.78857-.2964-1.16695-.2876-.56448-.7466-1.02343-1.311-1.31105-.3784-.19279-.7716-.26411-1.167-.29641-.3745-.0306-.8293-.03059-1.3564-.03057h-11.67715c-.52714-.00002-.98192-.00003-1.35649.03057-.39534.0323-.78856.10362-1.16694.29641-.56449.28762-1.02343.74656-1.31105 1.31105-.19279.37838-.26411.7716-.29641 1.16694-.01616.19781-.0258.39629-.03126.59511-.01496.54454-.02244.8168.08432 1.0367.09224.18997.25089.35303.43826.45046.21687.11276.50395.11276 1.07811.11276z"/><path d="m3.59999 9c-.56005 0-.84008 0-1.05399.10899-.18816.09588-.34114.24886-.43702.43702-.10899.21391-.10899.49389-.10899 1.05399v2.8c0 .5601 0 .8401.10899 1.054.09588.1882.24886.3411.43702.437.21391.109.49394.109 1.05399.109h16.80001c.56 0 .8401 0 1.054-.109.1881-.0959.3411-.2488.437-.437.109-.2139.109-.4939.109-1.054v-2.8c0-.5601 0-.84008-.109-1.05399-.0959-.18816-.2489-.34114-.437-.43702-.2139-.10899-.494-.10899-1.054-.10899z"/><path d="m22.0007 18.5999c.0149-.5445.0224-.8168-.0843-1.0367-.0923-.1899-.2509-.353-.4383-.4504-.2169-.1128-.5039-.1128-1.0781-.1128h-16.80001c-.57416 0-.86124 0-1.07811.1128-.18737.0974-.34602.2605-.43826.4504-.10676.2199-.09928.4922-.08432 1.0367.00546.1988.0151.3973.03126.5951.0323.3954.10362.7886.29641 1.167.28762.5645.74656 1.0234 1.31105 1.311.37838.1928.7716.2641 1.16694.2964.37457.0306.82932.0306 1.35646.0306h11.67718c.5271 0 .9819 0 1.3564-.0306.3954-.0323.7886-.1036 1.167-.2964.5644-.2876 1.0234-.7465 1.311-1.311.1928-.3784.2641-.7716.2964-1.167.0162-.1978.0258-.3963.0313-.5951z"/></g></svg>

<svg width="24" height="24" viewBox="0 0 24 24" fill="none" xmlns="http://www.w3.org/2000/svg">
<path d="M20.4 7C20.9742 7 21.2612 7 21.4781 6.88724C21.6655 6.78982 21.8241 6.62675 21.9164 6.43677C22.0231 6.21688 22.0156 5.94462 22.0007 5.40008C21.9952 5.20126 21.9856 5.00279 21.9694 4.80498C21.9371 4.40963 21.8658 4.01641 21.673 3.63803C21.3854 3.07355 20.9264 2.6146 20.362 2.32698C19.9836 2.13419 19.5904 2.06287 19.195 2.03057C18.8205 1.99997 18.3657 1.99998 17.8386 2L6.16145 2C5.63431 1.99998 5.17953 1.99997 4.80496 2.03057C4.40962 2.06287 4.0164 2.13419 3.63802 2.32698C3.07353 2.6146 2.61459 3.07354 2.32697 3.63803C2.13418 4.01641 2.06286 4.40963 2.03056 4.80497C2.0144 5.00278 2.00476 5.20126 1.9993 5.40008C1.98434 5.94462 1.97686 6.21688 2.08362 6.43678C2.17586 6.62675 2.33451 6.78981 2.52188 6.88724C2.73875 7 3.02583 7 3.59999 7L20.4 7Z" fill="#801ED7"/>
<path d="M3.59999 9C3.03994 9 2.75991 9 2.546 9.10899C2.35784 9.20487 2.20486 9.35785 2.10898 9.54601C1.99999 9.75992 1.99999 10.0399 1.99999 10.6L1.99999 13.4C1.99999 13.9601 1.99999 14.2401 2.10898 14.454C2.20486 14.6422 2.35784 14.7951 2.546 14.891C2.75991 15 3.03994 15 3.59999 15L20.4 15C20.96 15 21.2401 15 21.454 14.891C21.6421 14.7951 21.7951 14.6422 21.891 14.454C22 14.2401 22 13.9601 22 13.4V10.6C22 10.0399 22 9.75992 21.891 9.54601C21.7951 9.35785 21.6421 9.20487 21.454 9.10899C21.2401 9 20.96 9 20.4 9L3.59999 9Z" fill="#801ED7"/>
<path d="M22.0007 18.5999C22.0156 18.0554 22.0231 17.7831 21.9164 17.5632C21.8241 17.3733 21.6655 17.2102 21.4781 17.1128C21.2612 17 20.9742 17 20.4 17L3.59999 17C3.02583 17 2.73875 17 2.52188 17.1128C2.33451 17.2102 2.17586 17.3733 2.08362 17.5632C1.97686 17.7831 1.98434 18.0554 1.9993 18.5999C2.00476 18.7987 2.0144 18.9972 2.03056 19.195C2.06286 19.5904 2.13418 19.9836 2.32697 20.362C2.61459 20.9265 3.07353 21.3854 3.63802 21.673C4.0164 21.8658 4.40962 21.9371 4.80496 21.9694C5.17953 22 5.63428 22 6.16142 22H17.8386C18.3657 22 18.8205 22 19.195 21.9694C19.5904 21.9371 19.9836 21.8658 20.362 21.673C20.9264 21.3854 21.3854 20.9265 21.673 20.362C21.8658 19.9836 21.9371 19.5904 21.9694 19.195C21.9856 18.9972 21.9952 18.7987 22.0007 18.5999Z" fill="#801ED7"/>
</svg>
